X: 1
T: Flowers of Edinburgh
C: James Oswald
O: arr. by Tom Morley
R: reel
S: Fiddle Hell Online 2021-11-04
Z: 2022 John Chambers <jc:trillian.mit.edu>
M: 4/4
L: 1/8
K: G
(uGE) |\
"G"vD2(DE) G2(GA) | BGB(ud cB)AG | "D"FGF(E DE)FG | "D"AFd(F "C"E2)vGuE |
"G"D2DE G2GA | BGB(ud "C"ef)ge | "D"dcBA GFGA | "G"B2G2 G2 :|
|: (uBd) |\
"G"vg2g2 gbag | "D"f2f2 fagf | "C"e2(ef) gfed | "Em"B2e2 e2(ge) |
"G"dBGB d2d2 | "C"ede(uf g2)fe | "D"dcBA GFGA | "G"B2G2 G2 :|
